Source Code/mun/assets/flags/SSD.svg

<svg viewBox="0 0 40.5 40.5" xmlns="http://www.w3.org/2000/svg"><path d="m38.8 12.14h-37.1a15.77 15.77 0 0 1 .84-1.7 20.24 20.24 0 0 1 36.26 1.7z"/><path d="m38.8 28.36a20.24 20.24 0 0 1 -36.26 1.7 15.77 15.77 0 0 1 -.84-1.7z" fill="#078930"/><path d="m40.5 20.25a19.79 19.79 0 0 1 -.94 6.09h-38.62a20.2 20.2 0 0 1 0-12.18h38.62a19.79 19.79 0 0 1 .94 6.09z" fill="#da121a"/><path d="m39.56 14.16h-38.62a16.4 16.4 0 0 1 .76-2h37.1a16.4 16.4 0 0 1 .76 2z" fill="#fff"/><path d="m39.56 26.34a16.4 16.4 0 0 1 -.76 2h-37.1a16.4 16.4 0 0 1 -.76-2z" fill="#fff"/><path d="m19.53 20.25-10.53 6.09-3.51 2-2.94 1.7a15.77 15.77 0 0 1 -.84-1.7 16.4 16.4 0 0 1 -.76-2 20.2 20.2 0 0 1 0-12.18 16.4 16.4 0 0 1 .76-2 15.77 15.77 0 0 1 .84-1.7l2.94 1.7 3.51 2z" fill="#0f47af"/><path d="m4.16 15.52 2.08 2.85 3.35-1.1-2.07 2.86 2.08 2.85-3.36-1.09-2.06 2.86-.01-3.52-3.35-1.09 3.35-1.09z" fill="#fcdd09"/></svg>

<svg xmlns="http://www.w3.org/2000/svg" viewBox="0 0 40.5 40.5"><defs><style>.cls-1{fill:#078930;}.cls-2{fill:#da121a;}.cls-3{fill:#fff;}.cls-4{fill:#0f47af;}.cls-5{fill:#fcdd09;}</style></defs><g id="Ebene_2" data-name="Ebene 2"><g id="Ńëîé_1" data-name="Ńëîé 1"><path d="M38.8,12.14H1.7a15.77,15.77,0,0,1,.84-1.7,20.24,20.24,0,0,1,36.26,1.7Z"/><path class="cls-1" d="M38.8,28.36a20.24,20.24,0,0,1-36.26,1.7,15.77,15.77,0,0,1-.84-1.7Z"/><path class="cls-2" d="M40.5,20.25a19.79,19.79,0,0,1-.94,6.09H.94a20.2,20.2,0,0,1,0-12.18H39.56A19.79,19.79,0,0,1,40.5,20.25Z"/><path class="cls-3" d="M39.56,14.16H.94a16.4,16.4,0,0,1,.76-2H38.8A16.4,16.4,0,0,1,39.56,14.16Z"/><path class="cls-3" d="M39.56,26.34a16.4,16.4,0,0,1-.76,2H1.7a16.4,16.4,0,0,1-.76-2Z"/><path class="cls-4" d="M19.53,20.25,9,26.34l-3.51,2-2.94,1.7a15.77,15.77,0,0,1-.84-1.7,16.4,16.4,0,0,1-.76-2,20.2,20.2,0,0,1,0-12.18,16.4,16.4,0,0,1,.76-2,15.77,15.77,0,0,1,.84-1.7l2.94,1.7,3.51,2Z"/><polygon class="cls-5" points="4.16 15.52 6.24 18.37 9.59 17.27 7.52 20.13 9.6 22.98 6.24 21.89 4.18 24.75 4.17 21.23 0.82 20.14 4.17 19.05 4.16 15.52"/></g></g></svg>
